icons/spam-2-fill.svg

<svg viewBox="0 0 24 24" fill="currentColor" xmlns="http://www.w3.org/2000/svg"><path d="M15.936 2.50098L21.501 8.06595V15.936L15.936 21.501H8.06595L2.50098 15.936V8.06595L8.06595 2.50098H15.936ZM11.0002 15.0002V17.0002H13.0002V15.0002H11.0002ZM11.0002 7.00024V13.0002H13.0002V7.00024H11.0002Z"/></svg>

<svg xmlns="http://www.w3.org/2000/svg" viewBox="0 0 24 24">
    <g>
        <path fill="none" d="M0 0h24v24H0z"/>
        <path d="M16.218 2.5l5.683 5.682v8.036l-5.683 5.683H8.182l-5.683-5.683V8.182l5.683-5.683h8.036zM11 15v2h2v-2h-2zm0-8v6h2V7h-2z"/>
    </g>
</svg>
